sites/default/files/images/our platform/headings/Step-2-Heading.svg

<svg width="753" height="279" viewBox="0 0 753 279" fill="none" xmlns="http://www.w3.org/2000/svg">
<rect x="482" y="232" width="231" height="17" rx="8.5" fill="#9FC3FD"/>
<path d="M131.714 158.514C131.714 183.09 126.628 201.889 116.455 214.91C106.283 227.931 91.39 234.441 71.7773 234.441C52.4089 234.441 37.5977 228.053 27.3438 215.276C17.0898 202.5 11.8408 184.189 11.5967 160.345V127.63C11.5967 102.809 16.7236 83.9694 26.9775 71.1113C37.3128 58.2533 52.1647 51.8242 71.5332 51.8242C90.9017 51.8242 105.713 58.2126 115.967 70.9893C126.221 83.6846 131.47 101.954 131.714 125.799V158.514ZM96.4355 122.625C96.4355 107.895 94.401 97.1937 90.332 90.5205C86.3444 83.766 80.0781 80.3887 71.5332 80.3887C63.2324 80.3887 57.0882 83.6032 53.1006 90.0322C49.1943 96.3799 47.1191 106.349 46.875 119.939V163.152C46.875 177.638 48.8281 188.421 52.7344 195.501C56.722 202.5 63.0697 205.999 71.7773 205.999C80.4036 205.999 86.6292 202.622 90.4541 195.867C94.279 189.113 96.2728 178.777 96.4355 164.861V122.625ZM277.466 232H155.64V207.83L213.135 146.551C221.029 137.924 226.847 130.397 230.591 123.968C234.416 117.539 236.328 111.435 236.328 105.657C236.328 97.7633 234.334 91.5785 230.347 87.1025C226.359 82.5452 220.662 80.2666 213.257 80.2666C205.282 80.2666 198.975 83.0335 194.336 88.5674C189.779 94.0199 187.5 101.222 187.5 110.174H152.1C152.1 99.3503 154.663 89.4626 159.79 80.5107C164.998 71.5589 172.323 64.5602 181.763 59.5146C191.203 54.3877 201.904 51.8242 213.867 51.8242C232.178 51.8242 246.379 56.2188 256.47 65.0078C266.642 73.7969 271.729 86.2074 271.729 102.239C271.729 111.028 269.45 119.98 264.893 129.095C260.335 138.209 252.523 148.829 241.455 160.955L201.05 203.558H277.466V232Z" fill="#2A2A2A"/>
<g filter="url(#filter0_d)">
<path d="M204.207 172.34C204.754 176.285 205.828 179.234 207.43 181.188C210.359 184.742 215.379 186.52 222.488 186.52C226.746 186.52 230.203 186.051 232.859 185.113C237.898 183.316 240.418 179.977 240.418 175.094C240.418 172.242 239.168 170.035 236.668 168.473C234.168 166.949 230.242 165.602 224.891 164.43L215.75 162.379C206.766 160.348 200.555 158.141 197.117 155.758C191.297 151.773 188.387 145.543 188.387 137.066C188.387 129.332 191.199 122.906 196.824 117.789C202.449 112.672 210.711 110.113 221.609 110.113C230.711 110.113 238.465 112.535 244.871 117.379C251.316 122.184 254.695 129.176 255.008 138.355H237.664C237.352 133.16 235.086 129.469 230.867 127.281C228.055 125.836 224.559 125.113 220.379 125.113C215.73 125.113 212.02 126.051 209.246 127.926C206.473 129.801 205.086 132.418 205.086 135.777C205.086 138.863 206.453 141.168 209.188 142.691C210.945 143.707 214.695 144.898 220.438 146.266L235.32 149.84C241.844 151.402 246.766 153.492 250.086 156.109C255.242 160.172 257.82 166.051 257.82 173.746C257.82 181.637 254.793 188.199 248.738 193.434C242.723 198.629 234.207 201.227 223.191 201.227C211.941 201.227 203.094 198.668 196.648 193.551C190.203 188.395 186.98 181.324 186.98 172.34H204.207ZM263.27 147.613V135.719H272.176V117.906H288.699V135.719H299.07V147.613H288.699V181.363C288.699 183.98 289.031 185.621 289.695 186.285C290.359 186.91 292.391 187.223 295.789 187.223C296.297 187.223 296.824 187.223 297.371 187.223C297.957 187.184 298.523 187.145 299.07 187.105V199.586L291.16 199.879C283.27 200.152 277.879 198.785 274.988 195.777C273.113 193.863 272.176 190.914 272.176 186.93V147.613H263.27ZM334.988 147.203C331.121 147.203 328.113 148.414 325.965 150.836C323.855 153.258 322.527 156.539 321.98 160.68H347.938C347.664 156.266 346.316 152.926 343.895 150.66C341.512 148.355 338.543 147.203 334.988 147.203ZM334.988 133.434C340.301 133.434 345.086 134.43 349.344 136.422C353.602 138.414 357.117 141.559 359.891 145.855C362.391 149.645 364.012 154.039 364.754 159.039C365.184 161.969 365.359 166.188 365.281 171.695H321.57C321.805 178.102 323.816 182.594 327.605 185.172C329.91 186.773 332.684 187.574 335.926 187.574C339.363 187.574 342.156 186.598 344.305 184.645C345.477 183.59 346.512 182.125 347.41 180.25H364.461C364.031 184.039 362.059 187.887 358.543 191.793C353.074 198.004 345.418 201.109 335.574 201.109C327.449 201.109 320.281 198.492 314.07 193.258C307.859 188.023 304.754 179.508 304.754 167.711C304.754 156.656 307.547 148.18 313.133 142.281C318.758 136.383 326.043 133.434 334.988 133.434ZM420.594 167.066C420.594 162.145 419.461 157.789 417.195 154C414.969 150.211 411.336 148.316 406.297 148.316C400.242 148.316 396.082 151.188 393.816 156.93C392.645 159.977 392.059 163.844 392.059 168.531C392.059 175.953 394.031 181.168 397.977 184.176C400.32 185.934 403.094 186.812 406.297 186.812C410.945 186.812 414.48 185.016 416.902 181.422C419.363 177.828 420.594 173.043 420.594 167.066ZM411.102 133.727C418.562 133.727 424.871 136.48 430.027 141.988C435.223 147.496 437.82 155.582 437.82 166.246C437.82 177.496 435.281 186.07 430.203 191.969C425.164 197.867 418.66 200.816 410.691 200.816C405.613 200.816 401.395 199.547 398.035 197.008C396.199 195.602 394.402 193.551 392.645 190.855V224.137H376.121V135.133H392.117V144.566C393.914 141.793 395.828 139.605 397.859 138.004C401.57 135.152 405.984 133.727 411.102 133.727ZM547.449 112.633V127.926H521.609V199H503.445V127.926H477.488V112.633H547.449ZM577.918 135.133H594.852L604.578 181.129L614.539 135.133H631.941L613.426 199H596.258L586.238 152.477L576.102 199H558.758L540.828 135.133H558.758L568.719 180.953L577.918 135.133ZM669.852 187.223C674.734 187.223 678.484 185.484 681.102 182.008C683.719 178.531 685.027 173.59 685.027 167.184C685.027 160.777 683.719 155.855 681.102 152.418C678.484 148.941 674.734 147.203 669.852 147.203C664.969 147.203 661.199 148.941 658.543 152.418C655.926 155.855 654.617 160.777 654.617 167.184C654.617 173.59 655.926 178.531 658.543 182.008C661.199 185.484 664.969 187.223 669.852 187.223ZM702.547 167.184C702.547 176.559 699.852 184.586 694.461 191.266C689.07 197.906 680.887 201.227 669.91 201.227C658.934 201.227 650.75 197.906 645.359 191.266C639.969 184.586 637.273 176.559 637.273 167.184C637.273 157.965 639.969 149.977 645.359 143.219C650.75 136.461 658.934 133.082 669.91 133.082C680.887 133.082 689.07 136.461 694.461 143.219C699.852 149.977 702.547 157.965 702.547 167.184Z" fill="#59C9FF"/>
</g>
<defs>
<filter id="filter0_d" x="136.98" y="64.1133" width="615.566" height="214.023" filterUnits="userSpaceOnUse" color-interpolation-filters="sRGB">
<feFlood flood-opacity="0" result="BackgroundImageFix"/>
<feColorMatrix in="SourceAlpha" type="matrix" values="0 0 0 0 0 0 0 0 0 0 0 0 0 0 0 0 0 0 127 0"/>
<feOffset dy="4"/>
<feGaussianBlur stdDeviation="25"/>
<feColorMatrix type="matrix" values="0 0 0 0 1 0 0 0 0 1 0 0 0 0 1 0 0 0 0.25 0"/>
<feBlend mode="normal" in2="BackgroundImageFix" result="effect1_dropShadow"/>
<feBlend mode="normal" in="SourceGraphic" in2="effect1_dropShadow" result="shape"/>
</filter>
</defs>
</svg>

<svg xmlns="http://www.w3.org/2000/svg" width="753" height="279" fill="none"><rect width="231" height="17" x="482" y="232" fill="#9fc3fd" rx="8.5"/><path fill="#2a2a2a" d="M131.7 158.5c0 24.6-5.07 43.4-15.25 56.4s-25.05 19.54-44.67 19.54c-19.37 0-34.18-6.4-44.44-19.16s-15.5-31.1-15.74-54.93v-32.72c0-24.82 5.12-43.66 15.38-56.52C37.3 58.26 52.16 51.83 71.53 51.83s34.18 6.4 44.44 19.17c10.25 12.68 15.5 30.95 15.74 54.8v32.7zm-35.26-35.88c0-14.73-2.04-25.43-6.1-32.1-4-6.75-10.26-10.13-18.8-10.13-8.3 0-14.45 3.2-18.44 9.63-3.9 6.35-5.98 16.32-6.23 29.9v43.22c0 14.5 1.96 25.27 5.86 32.35 4 7 10.34 10.5 19.05 10.5 8.62 0 14.85-3.38 18.67-10.13s5.82-17.1 5.98-31v-42.24zM277.47 232H155.64v-24.17l57.5-61.28c7.9-8.63 13.7-16.15 17.45-22.58 3.82-6.43 5.73-12.54 5.73-18.3 0-7.9-2-14.1-5.98-18.57-4-4.55-9.7-6.83-17.1-6.83-7.98 0-14.28 2.76-18.92 8.3-4.56 5.45-6.84 12.65-6.84 21.6h-35.4c0-10.82 2.55-20.7 7.7-29.66 5.2-8.94 12.52-15.94 21.96-21 9.44-5.1 20.14-7.7 32.1-7.7 18.32 0 32.52 4.4 42.6 13.2 10.18 8.8 15.27 21.2 15.27 37.23 0 8.8-2.28 17.74-6.83 26.85s-12.37 19.74-23.44 31.86l-40.4 42.6h76.4V232z"/><path fill="#59c9ff" d="M204.2 172.34c.55 3.94 1.63 6.9 3.23 8.85 2.93 3.54 7.95 5.32 15.06 5.32 4.25 0 7.7-.47 10.36-1.4 5.04-1.8 7.56-5.14 7.56-10.03 0-2.86-1.25-5.07-3.75-6.63-2.5-1.52-6.43-2.87-11.78-4.04l-9.15-2.05c-8.98-2.03-15.2-4.24-18.63-6.62-5.82-4-8.73-10.22-8.73-18.7 0-7.73 2.8-14.15 8.43-19.27s13.88-7.7 24.78-7.7c9.1 0 16.87 2.44 23.27 7.28 6.45 4.8 9.83 11.8 10.14 20.98h-17.33c-.32-5.2-2.58-8.9-6.8-11.08-2.8-1.44-6.3-2.17-10.5-2.17-4.64 0-8.35.95-11.12 2.83s-4.16 4.5-4.16 7.85c0 3.08 1.35 5.4 4.1 6.9 1.75 1.03 5.5 2.22 11.24 3.6l14.88 3.56c6.53 1.56 11.45 3.65 14.77 6.27 5.14 4.07 7.72 9.95 7.72 17.65 0 7.9-3.03 14.45-9.08 19.7-6.02 5.18-14.53 7.78-25.55 7.78-11.26 0-20.1-2.56-26.55-7.68-6.45-5.15-9.67-12.22-9.67-21.2h17.23zm59.07-24.73v-11.88h8.9v-17.8h16.53v17.8h10.37v11.9H288.7v33.74c0 2.62.33 4.26 1 4.93.66.6 2.7.92 6.1.92h1.57l1.7-.1v12.47l-7.9.28c-7.9.27-13.28-1.1-16.17-4.1-1.88-1.92-2.8-4.87-2.8-8.85V147.6h-8.92zm71.72-.4c-3.88 0-6.9 1.22-9.04 3.65-2.1 2.42-3.43 5.7-3.98 9.84h25.96c-.28-4.42-1.62-7.76-4.05-10.03-2.4-2.3-5.36-3.46-8.9-3.46zm0-13.76c5.3 0 10.1 1 14.34 3s7.78 5.13 10.55 9.42c2.5 3.8 4.1 8.2 4.85 13.2.43 2.92.6 7.14.53 12.64h-43.7c.23 6.4 2.24 10.9 6.03 13.48 2.3 1.6 5.1 2.4 8.33 2.4 3.43 0 6.23-.97 8.38-2.93 1.18-1.05 2.2-2.52 3.1-4.4h17.06c-.43 3.8-2.4 7.64-5.92 11.55-5.47 6.2-13.12 9.32-22.97 9.32-8.12 0-15.3-2.62-21.5-7.85s-9.32-13.75-9.32-25.55c0-11.06 2.8-19.53 8.38-25.43 5.63-5.9 12.9-8.86 21.86-8.86zm85.6 33.63c0-4.92-1.14-9.27-3.4-13.06-2.23-3.78-5.87-5.68-10.9-5.68-6.06 0-10.22 2.88-12.48 8.62-1.17 3.05-1.76 6.9-1.76 11.6 0 7.42 1.97 12.64 5.92 15.64 2.34 1.76 5.1 2.64 8.32 2.64 4.64 0 8.18-1.8 10.6-5.4 2.46-3.6 3.7-8.38 3.7-14.36zm-9.5-33.34c7.46 0 13.77 2.76 18.93 8.26 5.2 5.5 7.8 13.6 7.8 24.25 0 11.25-2.55 19.83-7.63 25.73-5.04 5.9-11.54 8.84-19.5 8.84-5.1 0-9.3-1.27-12.67-3.8-1.83-1.4-3.63-3.46-5.4-6.16v33.28h-16.5v-89h16v9.43c1.78-2.77 3.7-4.96 5.73-6.56 3.7-2.84 8.12-4.27 13.24-4.27zm136.35-21.1v15.3H521.6V199h-18.16v-71.07H477.5v-15.3h69.95zm30.47 22.5h16.93l9.73 46 9.96-46h17.4L613.44 199h-17.18l-10.02-46.52L576.1 199h-17.34l-17.93-63.87h17.93l9.96 45.82 9.2-45.82zm91.93 52.1c4.88 0 8.63-1.73 11.25-5.2s3.93-8.42 3.93-14.83-1.3-11.33-3.93-14.76c-2.62-3.48-6.37-5.22-11.25-5.22s-8.65 1.74-11.3 5.22c-2.62 3.43-3.93 8.36-3.93 14.76s1.3 11.35 3.92 14.83c2.66 3.47 6.43 5.2 11.3 5.2zm32.7-20.03c0 9.38-2.7 17.4-8.1 24.08-5.38 6.64-13.56 9.96-24.54 9.96s-19.15-3.32-24.54-9.96c-5.4-6.68-8.08-14.7-8.08-24.08 0-9.22 2.7-17.2 8.08-23.96s13.58-10.14 24.55-10.14 19.17 3.38 24.56 10.14 8.1 14.74 8.1 23.96z" filter="url(#a)"/><defs><filter id="a" width="615.566" height="214.023" x="136.98" y="64.113" filterUnits="userSpaceOnUse" color-interpolation-filters="sRGB"><feFlood flood-opacity="0" result="A"/><feColorMatrix in="SourceAlpha" values="0 0 0 0 0 0 0 0 0 0 0 0 0 0 0 0 0 0 127 0"/><feOffset dy="4"/><feGaussianBlur stdDeviation="25"/><feColorMatrix values="0 0 0 0 1 0 0 0 0 1 0 0 0 0 1 0 0 0 0.25 0"/><feBlend in2="A"/><feBlend in="SourceGraphic"/></filter></defs></svg>
